public/assets/icons/estate.svg

<svg viewBox="0 0 24 24" xmlns="http://www.w3.org/2000/svg" xmlns:xlink="http://www.w3.org/1999/xlink" id="estate" overflow="hidden"><path d="M20 8 20 8 14 2.74C12.8612 1.72142 11.1388 1.72142 10 2.74L4 8C3.35744 8.57467 2.99315 9.39798 3 10.26L3 19C3 20.6569 4.34315 22 6 22L18 22C19.6569 22 21 20.6569 21 19L21 10.25C21.004 9.39146 20.6399 8.57236 20 8ZM14 20 10 20 10 15C10 14.4477 10.4477 14 11 14L13 14C13.5523 14 14 14.4477 14 15ZM19 19C19 19.5523 18.5523 20 18 20L16 20 16 15C16 13.3431 14.6569 12 13 12L11 12C9.34315 12 8 13.3431 8 15L8 20 6 20C5.44772 20 5 19.5523 5 19L5 10.25C5.00036 9.96277 5.12422 9.68957 5.34 9.5L11.34 4.25C11.7175 3.91835 12.2825 3.91835 12.66 4.25L18.66 9.5C18.8758 9.68957 18.9996 9.96277 19 10.25Z" fill="#FFFFFF"/></svg>

<svg xmlns="http://www.w3.org/2000/svg" viewBox="0 0 24 24" id="estate"><path fill="#120000" d="M20,8h0L14,2.74a3,3,0,0,0-4,0L4,8a3,3,0,0,0-1,2.26V19a3,3,0,0,0,3,3H18a3,3,0,0,0,3-3V10.25A3,3,0,0,0,20,8ZM14,20H10V15a1,1,0,0,1,1-1h2a1,1,0,0,1,1,1Zm5-1a1,1,0,0,1-1,1H16V15a3,3,0,0,0-3-3H11a3,3,0,0,0-3,3v5H6a1,1,0,0,1-1-1V10.25a1,1,0,0,1,.34-.75l6-5.25a1,1,0,0,1,1.32,0l6,5.25a1,1,0,0,1,.34.75Z"></path></svg>
